X:1
T:Title
%%score { ( 1 4 ) | ( 2 3 ) }
L:1/8
M:4/4
K:F
V:1 treble nm="Grand Piano"
V:4 treble 
V:2 bass 
V:3 bass 
V:1
 z4 z2[Q:1/4=100] F>G | A2 A>A A2 A>B | c4 c2 c>c | [Fd]2 [Fd]>[Fd] [DFB]2 [Fd]>d |[M:3/4] c6 | %5
[M:1/4] F>G |[M:4/4] A2 A>A A2 B>c | [Fd]4 [Fd]2 [Fe]>[Ff] | [Fc]2 [Fc]>[FB] [CFA]2 [B,EG]>[B,EG] | %9
[M:3/4] [A,F]6 |[M:12/8] z6 FFF A A2 | G,A,G, z3[K:treble] AAA [FA] A2 | %12
 C,E,F, z3[K:treble] ccc c c2 | G,F,G, A,3[K:treble] ccc c3 | C,F,G, z3[K:treble] ccc [FAc] [Ac]2 | %15
 z6 [Bd][Bd][Bd] [FBd] [Bd]2 | G,A,B, z3 ccc c c2 |[M:9/8] B,A,G, z3 cBG | F3 z3 z3 |] %19
V:2
 z4 z2 [F,A,C]>[F,B,C] | [F,CF]2 [F,CF]>[F,CF] [F,CF]2 [F,CF]>[F,G,F] | %2
 [F,A,F]4 [F,A,F]2 [F,A,F]>[F,A,F] | [B,,B,]2 [B,,B,]>[B,,B,] B,,2 z z/[K:treble] F/ | %4
[M:3/4] [F,A,F]6 |[M:1/4][K:bass] [F,A,C]>[F,B,C] | %6
[M:4/4] [F,CF]2 [F,CF]>[F,CF] [F,CF]2 [F,G,F]>[F,A,F] | [B,,B,]4 [B,,B,]2 [B,,C]>[B,,D] | %8
 [C,A,]2 [C,A,]>[C,G,] C,2 C,>C, |[M:3/4] F,6 |[M:12/8] C,F,G, z3[K:treble] CCC [CF] [CF]2 | %11
 z6 [CF][CF][CF][K:bass] C [CF]2 | z6[K:treble] [CE][CE][CE] [CE] [CE]2 | z6 [CF][CF][CF] [CF]3 | %14
 z6 [CF][CF][CF] z F2 | F,G,A, z3[K:treble] FFF z F2 | z6 [EG][EG][EG] [CEG] [CE]2 | %17
[M:9/8] z3 z3 [A,F][G,E][B,C] | [A,C]3 z3 z3 |] %19
V:3
 x8 | x8 | x8 | z4 z2 [B,,B,]2[K:treble] |[M:3/4] x6 |[M:1/4][K:bass] x2 |[M:4/4] x8 | x8 | x8 | %9
[M:3/4] x6 |[M:12/8] z3 A,6[K:treble] F,3 | z6 z3[K:bass] C,3 | z6[K:treble] z3 G,3 | z6 A,6 | %14
 z6 z3 F,3 | z3 B,6[K:treble] D,3 | x12 |[M:9/8] x9 | x9 |] %19
V:4
 x8 | x8 | x8 | x8 |[M:3/4] x6 |[M:1/4] x2 |[M:4/4] x8 | x8 | x8 |[M:3/4] x6 |[M:12/8] x12 | %11
 z3 F,6[K:treble] z3 | z3 G,6[K:treble] z3 | x6[K:treble] x6 | z3 A,6[K:treble] z3 | x12 | %16
 z3 C6 z3 |[M:9/8] z3 F,6- | F,3 z3 z3 |] %19

